X: 2074
T: At Dooley's With Ollie
R: jig
M: 6/8
K: Amajor
|:A2 A3 B|~AFE B,CE|A2 A3 B|1 cBA BcB:|2 cBA BAB||
cef ecB|ABc ecA|AFE A2B|cBA BAB|
cef ecB|Aag fec|cBA BcB|1 A2 A3 B:|2 A3z3||

